public/img/prize-violet.svg

<svg width="130" height="130" viewBox="0 0 130 130" fill="none" xmlns="http://www.w3.org/2000/svg">
<path d="M55.9275 14.6706C60.6767 9.06512 69.3223 9.06511 74.0714 14.6706L74.5819 15.2731C77.4942 18.7104 82.099 20.2066 86.4755 19.1376L87.2427 18.9501C94.3796 17.2067 101.374 22.2885 101.921 29.6149L101.98 30.4024C102.316 34.8951 105.162 38.8122 109.331 40.5197L110.062 40.819C116.86 43.6036 119.532 51.826 115.669 58.0749L115.253 58.7467C112.884 62.5786 112.884 67.4204 115.253 71.2523L115.669 71.924C119.532 78.1729 116.86 86.3954 110.062 89.1799L109.331 89.4792C105.162 91.1868 102.316 95.1039 101.98 99.5965L101.921 100.384C101.374 107.71 94.3796 112.792 87.2427 111.049L86.4755 110.861C82.099 109.792 77.4942 111.289 74.582 114.726L74.0715 115.328C69.3223 120.934 60.6767 120.934 55.9275 115.328L55.417 114.726C52.5047 111.289 47.8999 109.792 43.5234 110.861L42.7563 111.049C35.6193 112.792 28.6249 107.71 28.0775 100.384L28.0187 99.5965C27.683 95.1039 24.8371 91.1868 20.668 89.4792L19.9372 89.1799C13.1386 86.3954 10.4669 78.1729 14.3304 71.924L14.7457 71.2523C17.1149 67.4204 17.1149 62.5786 14.7457 58.7467L14.3304 58.075C10.4669 51.826 13.1386 43.6036 19.9372 40.819L20.668 40.5197C24.8371 38.8122 27.683 34.8951 28.0187 30.4024L28.0775 29.6149C28.6248 22.2885 35.6193 17.2067 42.7563 18.9501L43.5234 19.1376C47.8999 20.2066 52.5047 18.7104 55.417 15.2731L55.9275 14.6706Z" fill="#5A2E91"/>
<path d="M55.661 11.6758C60.5499 5.90536 69.4501 5.90536 74.339 11.6758L74.8827 12.3175C78.0874 16.1 83.1547 17.7465 87.9707 16.57L88.7877 16.3705C96.1348 14.5757 103.335 19.8071 103.899 27.3492L103.961 28.1879C104.331 33.1317 107.462 37.4422 112.05 39.3212L112.828 39.64C119.827 42.5065 122.577 50.971 118.6 57.4039L118.158 58.1192C115.551 62.336 115.551 67.664 118.158 71.8808L118.6 72.5961C122.577 79.029 119.827 87.4935 112.828 90.36L112.05 90.6788C107.462 92.5578 104.331 96.8683 103.961 101.812L103.899 102.651C103.335 110.193 96.1348 115.424 88.7877 113.63L87.9708 113.43C83.1547 112.253 78.0874 113.9 74.8827 117.683L74.339 118.324C69.4501 124.095 60.5499 124.095 55.661 118.324L55.1173 117.683C51.9126 113.9 46.8453 112.253 42.0293 113.43L41.2123 113.63C33.8652 115.424 26.6649 110.193 26.1014 102.651L26.0387 101.812C25.6694 96.8683 22.5376 92.5578 17.9499 90.6788L17.1716 90.36C10.1728 87.4935 7.42251 79.029 11.3998 72.5961L11.842 71.8808C14.4491 67.664 14.4491 62.336 11.842 58.1192L11.3998 57.4039C7.42251 50.971 10.1728 42.5065 17.1716 39.64L17.9499 39.3212C22.5376 37.4422 25.6694 33.1317 26.0387 28.1878L26.1014 27.3492C26.6649 19.8071 33.8652 14.5757 41.2123 16.3705L42.0293 16.5701C46.8453 17.7465 51.9126 16.1 55.1173 12.3175L55.661 11.6758Z" stroke="#5A2E91" stroke-width="0.844156"/>
</svg>

<svg width="130" height="130" fill="none" xmlns="http://www.w3.org/2000/svg"><path d="M55.928 14.67c4.749-5.605 13.394-5.605 18.143 0l.51.603a11.89 11.89 0 0011.894 3.865l.768-.188c7.137-1.743 14.131 3.338 14.678 10.665l.059.787a11.891 11.891 0 007.351 10.118l.731.299c6.798 2.785 9.47 11.007 5.607 17.256l-.416.672a11.89 11.89 0 000 12.505l.416.672c3.863 6.249 1.191 14.471-5.607 17.256l-.731.3a11.892 11.892 0 00-7.351 10.117l-.059.787c-.547 7.326-7.541 12.408-14.678 10.665l-.767-.188a11.891 11.891 0 00-11.894 3.865l-.51.602c-4.75 5.606-13.395 5.606-18.145 0l-.51-.602a11.891 11.891 0 00-11.894-3.865l-.767.188c-7.137 1.743-14.131-3.339-14.678-10.665l-.06-.787a11.89 11.89 0 00-7.35-10.118l-.73-.3c-6.8-2.784-9.471-11.006-5.608-17.255l.416-.672a11.89 11.89 0 000-12.505l-.416-.672c-3.863-6.249-1.191-14.471 5.607-17.256l.731-.3a11.89 11.89 0 007.35-10.117l.06-.787c.547-7.326 7.541-12.408 14.678-10.665l.767.188a11.89 11.89 0 0011.894-3.865l.51-.602z" fill="#5A2E91"/><path d="M55.661 11.676c4.889-5.77 13.79-5.77 18.678 0l.544.642A13.084 13.084 0 0087.97 16.57l.817-.2c7.347-1.794 14.547 3.437 15.111 10.98l.062.838a13.085 13.085 0 008.089 11.133l.778.319c6.999 2.867 9.749 11.331 5.772 17.764l-.442.715a13.085 13.085 0 000 13.762l.442.715c3.977 6.433 1.227 14.897-5.772 17.764l-.778.319a13.085 13.085 0 00-8.089 11.133l-.062.839c-.564 7.542-7.764 12.773-15.111 10.979l-.817-.2a13.083 13.083 0 00-13.088 4.253l-.544.641c-4.889 5.771-13.79 5.771-18.678 0l-.544-.641a13.083 13.083 0 00-13.088-4.253l-.817.2c-7.347 1.794-14.547-3.437-15.11-10.979l-.063-.839a13.084 13.084 0 00-8.09-11.133l-.777-.319c-7-2.867-9.75-11.331-5.772-17.764l.442-.715a13.084 13.084 0 000-13.762l-.442-.715c-3.977-6.433-1.227-14.898 5.772-17.764l.778-.319a13.084 13.084 0 008.089-11.133l.062-.839c.564-7.542 7.764-12.773 15.111-10.979l.817.2a13.085 13.085 0 0013.088-4.252l.544-.642z" stroke="#5A2E91" stroke-width=".844"/></svg>
